X: 28457
T: Mulvihill's
R: jig
M: 6/8
K: Bminor
Bc|:dcB cBA|BAF F3|def ecA|cBB B3|
d2 d cBA|(3Bcd B AFE|DFE F2 E|FBB B3|
dcB cBA|BAF F3|dcB ecA|cBB B2 c|
d2 d cBA|(3Bcd B AFE|DFE F2 E|FBB B3|
|:dcd ede|fdB AFA|d2 d efe|dBc d2 e|
fdf ece|dcB cBA|BAF F2 E|FBB B3:|

